!!!ONB: MCCC : IRS0134_01 : Extracted Monophonic Melody
!!!COM: Schumann, Robert
!!!OPR: Drei Romanzen
!!!OMV: 1
!!!SCT: Op.94
!!!ODT: 1849///
**kern
*staff1
*clefG2
*k[]
*C:
*M3/4
8e
=3
4r
4ff
8aa
8ff
=4
8ee
8cc
8b
8ee
8cc
8a
=5
8g
8aa
8gg
8dd
8ee
8ff
=6
8ee
8cc
16b
8.dd
8cc
8b
=7
2.a[
=8
4a]
4.aa
8ff
=9
8ee
8a
16a
8.dd
8cc
8b
=10
2.a
=11
2.r
=12
4e
4ee
4ff
=13
4a
4g#
4cc
=14
4b
2a
=15
8ee
8cc
8b
8ee
8cc
8a
=16
8g
8aa
8gg
8dd
8ee
8ff
=17
8r
8cc
4ff
4ee
=18
8a
8a
4cc
4b
=19
2e
4r
=20
2.r
=21
4r
4.ee
8ccc
=22
8bb
8gg
8ff#
8aa
8gg
8ee
=23
8cc
8gg
8ff#
8ee
8dd#
8ff#
=24
8ee
8ee
4ccc
4bb
=25
8ee
8b
4dd
4cc
=26
4a
4ee
4ff
=27
4dd
4cc#
4a
=28
4ee
4dd
8a
8aa
=29
2aa
4gg
=30
8ff
8c#
8d
8e
8f
8f#
=31
8g
8ff
2ee
=32
8r
8cc#
8dd
8ee
8ff
8ff#
=33
2.gg
=34
2.ccc[
=35
2ccc]
4gg
=36
4ee
4gg
4ddd
=37
4ccc
4gg
4ff
=38
4ee
4cc
4b
=39
2b-
4b-
=40
4b
4.bb
8gg
=41
8ff#
8b
8ee
8gg
8ff#
8dd
=42
8cc
8ee
8dd
8b
8a
8cc
=43
8b
8f#
8g
8f#
8g
8e-
=44
4e
4gg
4ddd
=45
4ccc
4gg
4ff
=46
4ee
4cc
4b
=47
2b-
4b-
=48
4b
4.bb
8gg
=49
8ff#
8aa
8gg
8ee
8cc
8ff
=50
8ee-
8ee
4.gg
8ee-
=51
2ee
4ee
=52
4dd
4cc#
4a
=53
4ee
4dd
8a
8aa
=54
2aa
4gg
=55
2ff
4r
=56
4r
4r
8g
8cc
=57
16dd
16cc
8b
8cc
8g#
4r
=58
4r
4r
8a
8ee-
=59
4r
4r
8a
8ee
=60
4ff
4.aa
8ff
=61
8ee
8cc
8b
8ee
8cc
8a
=62
8g
8aa
8gg
8dd
8ee
8ff
=63
8ee
8cc
16b
8.dd
8cc
8b
=64
2.a[
=65
4a]
4.aa
8ff
=66
8ee
8a
16a
8.dd
8cc
8b
=67
4a
4.b
8g#
=68
4a
4r
4a[
=69
4a]
4ff#
4a[
=70
4a]
4ee
4a[
=71
4a]
4dd
4a[
=72
4a]
4cc#
8a
8gg
=73
8ff
8cc
8b
8a
8g#
8ff
=74
8ee
8b-
8a
8g
8f#
8ee
=75
8dd
8a
8g
8f#
8f
8dd
=76
8cc#
8e
16e
16d
8c#
4a[
=77
4a]
4.aa
8ff
=78
8ee
8cc
8b
8ee
8cc
8a
=79
2.f
=80
4e
4d
4c
=81
8B
8f
8e
8e-
8d
8b
=82
8b-
8a
8g#
8dd
8cc#
8cc
=83
8b
8ff
8ee
8dd#
8ee
8b
=84
8ff
8b
8ee-
8b
8ee
8b
=85
4.ee
8cc
8a
8ff
=86
4.ee
8cc
8a
8ff
=87
2.ee
=88
4a
4r
4r
==
*-
